X: 060242
T: Flute Lesson
C: Peter Fitzgerald
Z: B.Black
R: reel
M: 4/4
L: 1/8
K: G
ge e2 gedg | edcA GEFA | G2 dG eGdG | decA Bdef |
ge e2 gedg | edcA GE E2 | e2 dc edcA | G2 BG EA G2 ||
agea fged | e2 dc AEFA | G2 dG eGdG | GABd efge |
agea fged | e2 dc A3 d | e2 dc A2 cA | G3 D EA A2 ||
